!!!OTL: MARIA VON RETZBACH
!!!ARE: Europa, Mitteleuropa, Deutschland, Franken
!!!SCT: E2078
!!!YEM: Copyright 1995, estate of Helmut Schaffrath.
**kern
*ICvox
*Ivox
*M3/4
*k[f#]
*G:
{4d
=1
4g
4g
4a
=2
8a
8b
4b}
{8cc
8ee
=3
4dd
4b
4a
=4
2g}
{4d
=5
4g
4g
4a
=6
8a
8b
4b}
{8cc
8ee
=7
4dd
4b
4a
=8
2g}
{8b
8cc
=9
4dd
4b
8dd
8ee
=10
8dd
8cc
4b}
{8a
8cc
=11
4b
4g
8b
8dd
=12
2a}
{4d
=13
4g
4g
4a
=14
8a
8b
4b}
{8cc
8ee
=15
4dd
4b
4a
=16
2g}
==
!!!AGN: geistlich, Marien - Lied
!!!ONB: ESAC (Essen Associative Code) Database: ERK3
!!!AMT: simple triple
!!!AIN: vox
!!!EED: Helmut Schaffrath
!!!EEV: 1.0
*-
